icon/lg/airbnb-icon.svg

<?xml version="1.0" encoding="UTF-8"?>
<svg viewBox="0 0 256 275" version="1.1" xmlns="http://www.w3.org/2000/svg" preserveAspectRatio="xMidYMid" height="1em" width="1em">
  <g>
    <path d="M252.154292,194.867326 C250.922969,191.411042 249.483995,188.067164 248.115382,184.968693 C246.007975,180.203002 243.801033,175.427872 241.666168,170.812343 L241.49713,170.445949 C222.457534,129.215088 202.021868,87.4204781 180.759028,46.2240251 L179.856344,44.4748604 C177.687157,40.2680272 175.445034,35.9182404 173.143705,31.6442207 C170.415059,26.2353247 167.103788,21.1392792 163.269097,16.4463523 C158.952174,11.2965061 153.555806,7.1547313 147.460973,4.31309597 C141.366141,1.47146064 134.72043,-1.42108547e-14 127.993204,-1.42108547e-14 C121.265978,-1.42108547e-14 114.621126,1.47481567 108.526293,4.31798693 C102.432318,7.1611582 97.036808,11.3043145 92.7216012,16.4551904 C88.8912009,21.1492327 85.5819032,26.2441628 82.852314,31.6503987 C80.5311634,35.9627739 78.2679323,40.3528898 76.0794386,44.5985075 L75.2412811,46.2235961 C53.9774967,87.4230523 33.5420022,129.217662 14.5025787,170.445091 L14.2251664,171.044879 C12.1273701,175.585756 9.95844023,180.281086 7.88624,184.966976 C6.51691479,188.062873 5.07981964,191.404177 3.84717554,194.869042 C0.316679953,204.30861 -0.808331101,214.475818 0.573271296,224.456825 C2.03843546,234.543374 6.11806921,244.073897 12.4081288,252.102808 C18.6981713,260.131718 26.9804681,266.381002 36.4346237,270.231996 C43.575523,273.1211 51.2108391,274.597829 58.9160875,274.580816 C61.3365161,274.580816 63.7548853,274.439087 66.1590965,274.159358 C75.9043934,272.917739 85.3032896,269.746332 93.8044787,264.832196 C104.955886,258.567466 115.969145,249.386175 128.000069,236.266368 C140.030992,249.386175 151.044251,258.567466 162.195659,264.832196 C170.696504,269.74719 180.095744,272.917739 189.840783,274.159358 C192.24508,274.439087 194.663964,274.580816 197.084565,274.580816 C204.789127,274.597829 212.423327,273.1211 219.564141,270.231996 C229.018296,266.381002 237.301194,260.131718 243.591665,252.102808 C249.882137,244.073897 253.962234,234.544232 255.427808,224.456825 C256.807576,214.47496 255.682653,204.307752 252.154292,194.867326 Z M128.000069,209.170404 C113.106642,190.292125 103.549518,172.761008 100.196202,158.064077 C98.8224404,152.557019 98.498092,146.841451 99.2403179,141.214263 C99.826376,137.089547 101.341718,133.15103 103.672221,129.694746 C106.539873,125.975894 110.225261,122.964088 114.443506,120.891862 C118.661752,118.820494 123.300449,117.742764 128.001785,117.742764 C132.703979,117.742764 137.341818,118.821352 141.560063,120.894436 C145.778309,122.966662 149.462838,125.978468 152.33049,129.69732 C154.660993,133.155321 156.176335,137.093837 156.762394,141.219412 C157.502903,146.849173 157.177697,152.566458 155.801361,158.075232 C152.444613,172.770446 142.890063,190.296416 128.000069,209.170404 Z M238.032265,221.97187 C237.007736,229.024303 234.154671,235.688032 229.75709,241.301491 C225.358651,246.915807 219.567573,251.28593 212.957043,253.978537 C206.27272,256.656557 199.018642,257.605576 191.869248,256.737215 C184.437551,255.779615 177.275286,253.33413 170.814059,249.545775 C160.887968,243.969214 150.840032,235.408303 139.533315,222.84967 C157.532936,200.654971 168.772724,180.197853 172.934337,161.976852 C174.807492,154.314335 175.213356,146.367799 174.131337,138.555979 C173.149711,131.826179 170.651027,125.406139 166.824059,119.77981 C162.340671,113.709861 156.492103,108.775132 149.749432,105.374622 C143.005902,101.974112 135.557043,100.202208 128.001785,100.202208 C120.447384,100.202208 112.997667,101.973254 106.254138,105.372905 C99.5106082,108.772557 93.66204,113.706429 89.1786525,119.776378 C85.3522851,125.400991 82.8539443,131.819314 81.8713745,138.547398 C80.7888402,146.356644 81.1926454,154.29889 83.0615959,161.958833 C87.2205492,180.187557 98.4611952,200.649823 116.466823,222.851386 C105.160105,235.408303 95.1121692,243.969214 85.1859922,249.546633 C78.7246801,253.33413 71.5631872,255.780473 64.1313182,256.737215 C56.981066,257.605576 49.726988,256.656557 43.0422359,253.978537 C36.4317921,251.28593 30.6408,246.915807 26.2428758,241.302349 C21.8450373,235.688032 18.9928307,229.024303 17.9688164,221.97187 C16.983844,214.80274 17.8220873,207.501469 20.4063204,200.740778 C21.3886328,197.979526 22.5381819,195.269758 23.9623117,192.0503 C25.9770474,187.495693 28.1150869,182.866434 30.1831942,178.389911 L30.4609497,177.788408 C49.3938873,136.791798 69.7161174,95.2297239 90.8638914,54.254909 L91.7056527,52.6236424 C93.8585368,48.4464124 96.0852144,44.1274301 98.3316275,39.9540613 C100.480221,35.6526694 103.081015,31.5914497 106.090247,27.8390474 C108.756254,24.6181304 112.102706,22.0248876 115.889345,20.244661 C119.676842,18.4643486 123.810997,17.5407278 127.996636,17.5407278 C132.182275,17.5407278 136.317289,18.4630615 140.103928,20.2426875 C143.891425,22.0223134 147.237877,24.6150414 149.904741,27.8355294 C152.91569,31.5851 155.517342,35.6449468 157.664219,39.9461671 C159.890039,44.0823817 162.096981,48.3624936 164.231846,52.5013682 L165.136246,54.2567109 C186.283248,95.2271497 206.604791,136.788366 225.539702,177.79184 L225.710457,178.160808 C227.814432,182.712841 229.989625,187.417609 232.037826,192.052016 C233.463929,195.275764 234.615452,197.988107 235.595361,200.739062 C238.178136,207.500611 239.016465,214.801882 238.032265,221.97187 Z" fill="#FF385C"/>
  </g>
</svg>

<svg width="256" height="275" xmlns="http://www.w3.org/2000/svg" preserveAspectRatio="xMidYMid"><path d="M252.154 194.867c-1.231-3.456-2.67-6.8-4.039-9.898-2.107-4.766-4.314-9.541-6.449-14.157l-.169-.366c-19.04-41.23-39.475-83.026-60.738-124.222l-.903-1.75c-2.169-4.206-4.411-8.556-6.712-12.83a83.351 83.351 0 0 0-9.875-15.198 45.98 45.98 0 0 0-15.808-12.133 46.072 46.072 0 0 0-38.935.005 45.976 45.976 0 0 0-15.804 12.137 83.712 83.712 0 0 0-9.87 15.195c-2.32 4.313-4.584 8.703-6.773 12.949l-.838 1.625c-21.264 41.2-41.699 82.994-60.738 124.221l-.278.6c-2.098 4.54-4.267 9.236-6.339 13.922-1.37 3.096-2.806 6.437-4.039 9.902a60.699 60.699 0 0 0-3.274 29.588 58.455 58.455 0 0 0 11.835 27.646 58.603 58.603 0 0 0 24.027 18.129 59.593 59.593 0 0 0 22.481 4.349c2.42 0 4.839-.142 7.243-.422a73.906 73.906 0 0 0 27.645-9.327c11.152-6.265 22.165-15.446 34.196-28.566 12.031 13.12 23.044 22.301 34.196 28.566a73.89 73.89 0 0 0 27.645 9.327c2.404.28 4.823.422 7.244.422a59.586 59.586 0 0 0 22.48-4.349 58.609 58.609 0 0 0 24.027-18.13 58.453 58.453 0 0 0 11.836-27.645 60.752 60.752 0 0 0-3.274-29.59ZM128 209.17c-14.893-18.878-24.45-36.409-27.804-51.106a45.195 45.195 0 0 1-.956-16.85 27.533 27.533 0 0 1 4.432-11.52 30.688 30.688 0 0 1 10.772-8.802 30.762 30.762 0 0 1 27.116.002 30.685 30.685 0 0 1 10.77 8.803 27.548 27.548 0 0 1 4.432 11.522 45.21 45.21 0 0 1-.96 16.856C152.444 172.77 142.89 190.296 128 209.17Zm110.032 12.802a40.874 40.874 0 0 1-8.275 19.33 40.977 40.977 0 0 1-16.8 12.677 42.823 42.823 0 0 1-21.088 2.758 55.703 55.703 0 0 1-21.055-7.191c-9.926-5.577-19.974-14.138-31.28-26.696 17.999-22.195 29.239-42.652 33.4-60.873a62.51 62.51 0 0 0 1.197-23.421 44.91 44.91 0 0 0-7.307-18.776 48.223 48.223 0 0 0-17.075-14.405 48.313 48.313 0 0 0-43.495-.002 48.205 48.205 0 0 0-17.075 14.403 44.91 44.91 0 0 0-7.308 18.771 62.535 62.535 0 0 0 1.19 23.412c4.16 18.229 15.4 38.69 33.406 60.892-11.307 12.557-21.355 21.118-31.281 26.696a55.7 55.7 0 0 1-21.055 7.19 42.827 42.827 0 0 1-21.089-2.758 40.978 40.978 0 0 1-16.8-12.677 40.872 40.872 0 0 1-8.273-19.33 43.049 43.049 0 0 1 2.437-21.231c.983-2.761 2.132-5.471 3.556-8.69 2.015-4.555 4.153-9.185 6.221-13.661l.278-.602C49.394 136.792 69.716 95.23 90.864 54.255l.842-1.631c2.153-4.178 4.38-8.497 6.626-12.67a67.774 67.774 0 0 1 7.758-12.115 28.411 28.411 0 0 1 9.8-7.594 28.462 28.462 0 0 1 34.015 7.59 67.46 67.46 0 0 1 7.76 12.111c2.225 4.136 4.432 8.416 6.567 12.555l.904 1.756c21.147 40.97 41.469 82.531 60.404 123.535l.17.369c2.104 4.552 4.28 9.257 6.328 13.891 1.426 3.224 2.577 5.936 3.557 8.687a43.081 43.081 0 0 1 2.437 21.233Z" fill="#FF385C"/></svg>
